X:431
T:The Baker
B:The Scottish Violinist (n.d.)
C:James Scott Skinner
Z:Nigel Gatherer
M:4/4
L:1/8
K:A
d | cAED     CEAc | dFBA GBed | cAED     CEAc     | dfBd cAAd |
    cAED     CEAc | dFBA GBed | cAED     CEAc     | dfBg aAA ||
g | a/a/a Aa fedc | BFBA GBeg | a/a/a Aa e/e/e Aa | fagb aAAe |
    aAag     fedc | BFBA GBed | cAED     CEAc     | dfeg aAA |]
